Sources/App/frontend-webpack/src/assets/icons8-male-user-filled.svg

<?xml version="1.0"?>
<svg xmlns="http://www.w3.org/2000/svg" viewBox="0 0 50 50" fill="#ffffff" width="50px" height="50px">
    <path style="line-height:normal;text-indent:0;text-align:start;text-decoration-line:none;text-decoration-style:solid;text-decoration-color:#000;text-transform:none;block-progression:tb;isolation:auto;mix-blend-mode:normal" d="M 25 2.0078125 C 12.309296 2.0078125 2.0000002 12.317108 2 25.007812 C 2 37.112262 11.38131 47.043195 23.259766 47.935547 C 23.283185 47.93745 23.306613 47.939576 23.330078 47.941406 C 23.882405 47.981205 24.437631 48.007812 25 48.007812 C 25.562369 48.007812 26.117595 47.981205 26.669922 47.941406 C 26.693387 47.939576 26.716815 47.93745 26.740234 47.935547 C 38.61869 47.043195 48 37.112262 48 25.007812 C 48 12.317108 37.690704 2.0078125 25 2.0078125 z M 25 4.0078125 C 36.609824 4.0078125 46 13.397988 46 25.007812 C 46 30.739515 43.704813 35.924072 39.990234 39.710938 C 38.401074 38.55372 36.437194 37.863387 34.677734 37.246094 C 32.593734 36.516094 30.622172 35.824094 30.076172 34.621094 C 29.990172 33.594094 29.997859 32.792094 30.005859 31.871094 L 30.007812 31.480469 C 30.895813 30.635469 32.012531 28.852078 32.394531 27.205078 C 33.054531 26.853078 33.861516 26.009281 34.103516 23.988281 C 34.224516 22.985281 33.939062 22.2085 33.539062 21.6875 C 34.079062 19.8325 35.153484 15.136469 33.271484 12.105469 C 32.475484 10.824469 31.274313 10.016266 29.695312 9.6972656 C 28.808312 8.5992656 27.134484 8 24.896484 8 C 21.495484 8.063 19.002234 9.1047031 17.490234 11.095703 C 15.707234 13.445703 15.370328 16.996297 16.486328 21.654297 C 16.073328 22.175297 15.775438 22.963328 15.898438 23.986328 C 16.141438 26.007328 16.945469 26.851125 17.605469 27.203125 C 17.987469 28.852125 19.103188 30.635469 19.992188 31.480469 L 19.994141 31.861328 C 20.002141 32.786328 20.009828 33.590094 19.923828 34.621094 C 19.375828 35.827094 17.394781 36.526625 15.300781 37.265625 C 13.551886 37.88319 11.599631 38.574586 10.013672 39.716797 C 6.2962191 35.929504 4 30.742023 4 25.007812 C 4.0000002 13.397989 13.390176 4.0078125 25 4.0078125 z" font-weight="400" font-family="sans-serif" white-space="normal" overflow="visible" fill="#ffffff"/>
</svg>

<?xml version="1.0" encoding="utf-8"?>
<!-- Generator: Adobe Illustrator 22.1.0, SVG Export Plug-In . SVG Version: 6.00 Build 0)  -->
<svg version="1.1" id="Layer_1" xmlns="http://www.w3.org/2000/svg" xmlns:xlink="http://www.w3.org/1999/xlink" x="0px" y="0px"
	 viewBox="0 0 50 50" style="enable-background:new 0 0 50 50;" xml:space="preserve">
<style type="text/css">
	.st0{fill:#FFFFFF;}
</style>
<path class="st0" d="M25,2C12.3,2,2,12.3,2,25c0,12.1,9.4,22,21.3,22.9c0,0,0,0,0.1,0c0.6,0,1.1,0.1,1.7,0.1s1.1,0,1.7-0.1
	c0,0,0,0,0.1,0C38.6,47,48,37.1,48,25C48,12.3,37.7,2,25,2z M25,4c11.6,0,21,9.4,21,21c0,5.7-2.3,10.9-6,14.7
	c-1.6-1.2-3.6-1.8-5.3-2.5c-2.1-0.7-4.1-1.4-4.6-2.6c-0.1-1-0.1-1.8-0.1-2.8l0-0.4c0.9-0.8,2-2.6,2.4-4.3c0.7-0.4,1.5-1.2,1.7-3.2
	c0.1-1-0.2-1.8-0.6-2.3c0.5-1.9,1.6-6.6-0.3-9.6c-0.8-1.3-2-2.1-3.6-2.4C28.8,8.6,27.1,8,24.9,8c-3.4,0.1-5.9,1.1-7.4,3.1
	c-1.8,2.3-2.1,5.9-1,10.6c-0.4,0.5-0.7,1.3-0.6,2.3c0.2,2,1,2.9,1.7,3.2c0.4,1.6,1.5,3.4,2.4,4.3l0,0.4c0,0.9,0,1.7-0.1,2.8
	c-0.5,1.2-2.5,1.9-4.6,2.6c-1.7,0.6-3.7,1.3-5.3,2.5c-3.7-3.8-6-9-6-14.7C4,13.4,13.4,4,25,4z"/>
</svg>
